X:1
T:Happy Hearts Children Bring
T:Happy Hearts Children Bring
T:George Frederick Root
T:Lettie Hathaway, 1866
T:Public Domain Courtesy of the Cyber Hymnal™
C:George Frederick Root
Z:Public Domain
Z:Courtesy of the Cyber Hymnal™
%%score ( 1 2 ) 3
L:1/8
Q:1/4=83
M:4/8
K:G
V:1 treble 
V:2 treble 
V:3 bass 
V:1
 [GB][FA] G2 | [Fc][GB] [FA]2 | [Gd][Fc][GB][EG] | [DF][^CE] D2 | [GB][FA] G2 | [Fc][GB] [FA]2 | %6
w: 1.~Hap- py hearts|child- ren bring,|Now to God the|of- fer- ing;|Sing His praise,|learn His ways,|
w: 2.~Thank- ful hearts|child- ren bring,|As a trib- ute|to their king;|God is near,|Fa- ther, hear,|
w: 3.~Lov- ing hearts|child- ren bring,|An- gels bear the|of- fer- ing,|To the Lamb,|bless- èd name,|
 [Gd][Fc][GB][EG] | [EA][DF] [DG]2 | [FA][FA][FA][GB] | [Bd][Ac] [FA]2 | [GB][Gc][Gd]G | %11
w: On this best, this|best of days.|God is love, then|let us sing,|Prais- es to our|
w: And ac- cept our|hum- ble prayer.|God is love, and|child- ren raise|Thank- ful hearts in|
w: An- gels catch the|joy- ful strain.|God is love, and|an- gels join,|Our glad cho- rus|
 [GB][FA] G2 |] %12
w: Sav- ior King.|
w: songs of praise.|
w: round the throne.|
V:2
 x2 G2 | x4 | x4 | x2 D2 | x2 G2 | x4 | x4 | x4 | x4 | x4 | x3 G | x2 G2 |] %12
V:3
 [G,D][D,C] [G,,B,]2 | [D,D][D,D] [D,D]2 | [B,,D][A,,D][A,,D][G,,B,] | [A,,A,][A,,G,] [D,F,]2 | %4
 [G,D][D,C] [G,,B,]2 | [D,D][D,D] [D,D]2 | [B,,D][A,,D][G,,D][E,B,] | [C,C][D,A,] [G,,B,]2 | %8
 [D,D][D,D][D,D][D,D] | [D,D][D,D] [D,D]2 | [G,D][E,E][B,,D][E,B,] | [D,D][D,C] [G,,B,]2 |] %12

